public/assets/illustrations/line.svg

<svg width="249" height="16" viewBox="0 0 249 16" fill="none" xmlns="http://www.w3.org/2000/svg">
<path fill-rule="evenodd" clip-rule="evenodd" d="M82.5487 1.34763C55.0903 1.0315 27.5198 2.1868 0.942288 7.03789C0.468099 7.12411 0.271247 7.29367 0.23245 7.33247C0.00541431 7.56238 -0.0190557 7.80665 0.00968302 8.00782C0.0269262 8.12996 0.143369 8.64581 0.779931 8.69898C1.21963 8.7349 4.34061 8.48344 5.54476 8.41878C11.2135 8.11559 16.8707 7.68307 22.5251 7.18302C35.3454 6.05359 48.1485 5.07648 60.9889 4.18701C68.198 3.68696 75.41 3.27311 82.6177 2.93399C99.9572 3.1366 117.254 3.92693 134.227 4.74311C127.48 5.15838 121.281 5.5794 116.141 5.85242C107.474 6.31224 98.822 6.85539 90.1717 7.57099C85.7272 7.93741 81.2885 8.33545 76.8527 8.80533C76.3612 8.85849 75.2419 8.91309 74.7001 8.97775C74.4702 9.00362 74.3036 9.04529 74.2289 9.07403C73.7604 9.25509 73.7015 9.6258 73.6958 9.8126C73.6929 9.92612 73.7317 10.5454 74.522 10.6662C111.269 16.3306 149.606 9.74077 186.485 15.2471C186.918 15.3118 187.323 15.0129 187.388 14.5789C187.452 14.1464 187.153 13.7412 186.719 13.6765C151.986 8.49062 115.957 14.0358 81.1793 9.96493C84.2185 9.67035 87.259 9.40452 90.3024 9.15305C98.937 8.4389 107.573 7.89718 116.226 7.43736C124.934 6.97611 136.705 6.07514 149.027 5.50755C159.602 6.09669 170.17 6.75768 180.746 7.31808C185.208 7.55374 189.671 7.74917 194.131 7.98914C195.965 8.08685 200.682 8.49637 201.366 8.34406C201.898 8.22479 202.026 7.84401 202.057 7.6529C202.09 7.44598 202.07 7.18876 201.829 6.94305C201.754 6.86545 201.53 6.70452 201.07 6.57232C188.633 3.01016 168.269 3.0662 149.197 3.92692C145.094 3.69701 140.992 3.4786 136.888 3.28174C127.493 2.8291 117.995 2.37503 108.442 2.01723C135.363 1.35193 162.297 1.54305 189.238 2.02442C200.55 2.22703 231.04 3.44843 243.049 4.52757C242.902 4.67845 242.816 4.88824 242.826 5.11671C242.846 5.55354 243.218 5.89265 243.656 5.87254C246.134 5.75758 247.566 5.61102 248.134 5.46014C248.487 5.36674 248.68 5.2173 248.769 5.11958C248.988 4.88393 249.028 4.63102 248.985 4.39105C248.957 4.24161 248.89 4.0778 248.735 3.92692C248.631 3.82346 248.378 3.66541 247.947 3.55764C243.227 2.38366 202.735 0.678004 189.267 0.436599C153.676 -0.198526 118.098 -0.327838 82.5487 1.34763ZM191.443 6.25906C184.488 5.315 176.335 4.98307 167.829 5.00462C172.162 5.25609 176.496 5.50181 180.831 5.73172C184.367 5.91996 187.905 6.08088 191.443 6.25906ZM49.7464 3.39814C40.6218 4.07062 31.5073 4.79771 22.3857 5.60239C21.3324 5.69436 20.2806 5.78489 19.2273 5.87398C29.3146 4.63821 39.5068 3.85221 49.7464 3.39814Z" fill="url(#paint0_linear_313_34)"/>
<defs>
<linearGradient id="paint0_linear_313_34" x1="18.5" y1="-11" x2="170.5" y2="26" gradientUnits="userSpaceOnUse">
<stop stop-color="#D84C61"/>
<stop offset="0.489583" stop-color="#D11160"/>
<stop offset="1" stop-color="#BE0A70"/>
</linearGradient>
</defs>
</svg>

<svg xmlns="http://www.w3.org/2000/svg" width="249" height="16" fill="none" xmlns:v="https://vecta.io/nano"><path fill-rule="evenodd" d="M82.549 1.348C55.09 1.032 27.52 2.187.942 7.038c-.474.086-.671.256-.71.295-.227.23-.252.474-.223.675a.8.8 0 0 0 .77.691c.44.036 3.561-.216 4.765-.28 5.669-.303 11.326-.736 16.98-1.236l38.464-2.996 21.629-1.253c17.34.203 34.636.993 51.609 1.809l-18.086 1.109-25.969 1.719-13.319 1.234c-.492.053-1.611.108-2.153.172-.23.026-.397.068-.471.096a.77.77 0 0 0-.533.739c-.003.114.036.733.826.854 36.747 5.664 75.084-.925 111.963 4.581.433.065.838-.234.903-.668s-.235-.838-.669-.902c-34.733-5.186-70.762.359-105.54-3.712l9.123-.812c8.635-.714 17.271-1.256 25.924-1.716l32.801-1.93 31.719 1.811 13.385.671c1.834.098 6.551.507 7.235.355.532-.119.66-.5.691-.691a.78.78 0 0 0-.228-.71c-.075-.078-.299-.239-.759-.371-12.437-3.562-32.801-3.506-51.873-2.645l-12.309-.645-28.446-1.265c26.921-.665 53.855-.474 80.796.007 11.312.203 41.802 1.424 53.811 2.503a.79.79 0 0 0-.223.589c.02.437.392.776.83.756 2.478-.115 3.91-.262 4.478-.412.353-.093.546-.243.635-.341.219-.236.259-.489.216-.729a.85.85 0 0 0-.25-.464c-.104-.103-.357-.262-.788-.369-4.72-1.174-45.212-2.88-58.68-3.121-35.591-.635-71.169-.764-106.718.911zm108.894 4.911c-6.955-.944-15.108-1.276-23.614-1.254l13.002.727 10.612.527zM49.746 3.398L22.386 5.602l-3.158.272c10.087-1.236 20.28-2.022 30.519-2.476z" fill="url(#A)"/><defs><linearGradient id="A" x1="18.5" y1="-11" x2="170.5" y2="26" gradientUnits="userSpaceOnUse"><stop stop-color="#d84c61"/><stop offset=".49" stop-color="#d11160"/><stop offset="1" stop-color="#be0a70"/></linearGradient></defs></svg>
